T: An Fathach Tireannach
M: 6/8
L: 1/8
K: Amix
|: E>GB ABd | cBc dBA | E>GB ABd | cBA FGA |E>GB ABd | cBc dcA | cA/B/c dcB | ABA AGB :||: edc dcB | c2d cBA | edc dcB | cBA Bdf |edc dcB | c2d cBA | cA/B/c dcB [1 ABA GBd :|
